; generated by PrusaSlicer 2.3.0+win64 on 2021-03-02 at 03:45:50 UTC

; 

; external perimeters extrusion width = 0.45mm
; perimeters extrusion width = 0.45mm
; infill extrusion width = 0.45mm
; solid infill extrusion width = 0.45mm
; top infill extrusion width = 0.40mm
; support material extrusion width = 0.35mm
; first layer extrusion width = 0.42mm

M73 P0 R50
M73 Q0 S50
M201 X1000 Y1000 Z200 E5000 ; sets maximum accelerations, mm/sec^2
M203 X200 Y200 Z12 E120 ; sets maximum feedrates, mm/sec
M204 P1250 R1250 T1250 ; sets acceleration (P, T) and retract acceleration (R), mm/sec^2
M205 X8.00 Y8.00 Z0.40 E4.50 ; sets the jerk limits, mm/sec
M205 S0 T0 ; sets the minimum extruding and travel feed rate, mm/sec
M107
;TYPE:Custom
M862.3 P "MK3S" ; printer model check
M862.1 P0.4 ; nozzle diameter check
M115 U3.9.2 ; tell printer latest fw version
G90 ; use absolute coordinates
M83 ; extruder relative mode
M104 S215 ; set extruder temp
M140 S60 ; set bed temp
M190 S60 ; wait for bed temp
M109 S215 ; wait for extruder temp
G28 W ; home all without mesh bed level
G80 ; mesh bed leveling
G1 Y-3.0 F1000.0 ; go outside print area
G92 E0.0
G1 X60.0 E9.0 F1000.0 ; intro line
G1 X100.0 E12.5 F1000.0 ; intro line
G92 E0.0
M221 S95

; Don't change E values below. Excessive value can damage the printer.
M907 E430 ; set extruder motor current
G21 ; set units to millimeters
G90 ; use absolute coordinates
M83 ; use relative distances for extrusion
M900 K0.05 ; Filament gcode LA 1.5
M900 K30 ; Filament gcode LA 1.0
;LAYER_CHANGE
;Z:0.2
;HEIGHT:0.2
;BEFORE_LAYER_CHANGE
G92 E0.0
;0.2


G1 E-0.80000 F2100.000
G1 Z0.400 F10800.000
;AFTER_LAYER_CHANGE
;0.2
G1 X92.685 Y96.350
G1 Z0.200
G1 E0.80000 F2100.000
M204 S1000
;TYPE:Skirt
;WIDTH:0.42
G1 F1200.000
G1 X93.099 Y95.742 E0.02308
G1 X115.761 Y72.248 E1.02345
G1 X116.541 Y71.719 E0.02954
G1 X117.461 Y71.535 E0.02942
G1 X125.092 Y71.707 E0.23932
G1 X125.857 Y71.864 E0.02449
G1 X156.193 Y85.909 E1.04817
G1 X156.783 Y86.310 E0.02237
G1 X157.225 Y86.865 E0.02225
G1 X157.453 Y87.404 E0.01835
G1 X157.542 Y87.982 E0.01835
G1 X157.526 Y96.791 E0.27621
G1 X152.987 Y129.489 E1.03505
G1 X152.845 Y129.994 E0.01645
G1 X152.595 Y130.456 E0.01645
G1 X152.251 Y130.851 E0.01645
G1 X151.828 Y131.162 E0.01645
G1 X151.138 Y131.427 E0.02319
G1 X118.544 Y138.272 E1.04424
G1 X110.435 Y138.453 E0.25430
G1 X109.886 Y138.332 E0.01763
G1 X109.381 Y138.084 E0.01763
G1 X108.948 Y137.725 E0.01763
G1 X108.612 Y137.275 E0.01763
G1 X92.627 Y106.701 E1.08173
G1 X92.457 Y105.854 E0.02708
G1 X92.478 Y97.052 E0.27599
G1 X92.668 Y96.407 E0.02108
; printing object C:/Users/Erik/AppData/Local/Temp/Neutron/3b255480-1169-49f5-a365-6f0a15aff8c0.stl id:0 copy 0
;WIPE_START
G1 F8640.000
G1 X93.099 Y95.742 E-0.18318
G1 X94.834 Y93.944 E-0.57682
;WIPE_END
G1 E-0.04000 F2100.000
G1 Z0.600 F10800.000
G1 X94.834 Y105.817
G1 Z0.200
G1 E0.80000 F2100.000
;TYPE:Support material
G1 F1200.000
G1 X94.834 Y97.367 E0.26493
G1 X95.588 Y97.367 E0.02365
G1 X95.588 Y105.647 E0.25961
G1 X96.342 Y105.647 E0.02365
G1 X96.342 Y97.367 E0.25961
G1 X97.096 Y97.367 E0.02365
G1 X97.096 Y105.647 E0.25961
G1 X97.850 Y105.647 E0.02365
G1 X97.850 Y97.367 E0.25961
G1 X98.604 Y97.367 E0.02365
G1 X98.604 Y105.647 E0.25961
G1 X99.359 Y105.647 E0.02365
G1 X99.359 Y97.367 E0.25961
G1 X100.113 Y97.367 E0.02365
G1 X100.113 Y105.647 E0.25961
G1 X100.867 Y105.647 E0.02365
G1 X100.867 Y97.367 E0.25961
G1 X101.621 Y97.367 E0.02365
G1 X101.621 Y105.647 E0.25961
G1 X102.375 Y105.647 E0.02365
G1 X102.375 Y97.367 E0.25961
G1 X103.129 Y97.367 E0.02365
G1 X103.129 Y105.647 E0.25961
G1 X103.884 Y105.647 E0.02365
G1 X103.884 Y97.367 E0.25961
G1 X104.638 Y97.367 E0.02365
G1 X104.638 Y105.647 E0.25961
G1 X105.392 Y105.647 E0.02365
G1 X105.392 Y97.367 E0.25961
G1 X106.146 Y97.367 E0.02365
G1 X106.146 Y105.647 E0.25961
G1 X106.900 Y105.647 E0.02365
G1 X106.900 Y97.367 E0.25961
G1 X107.654 Y97.367 E0.02365
G1 X107.654 Y105.647 E0.25961
G1 X108.409 Y105.647 E0.02365
G1 X108.409 Y97.367 E0.25961
G1 X109.163 Y97.367 E0.02365
G1 X109.163 Y105.647 E0.25961
G1 X109.917 Y105.647 E0.02365
G1 X109.917 Y97.367 E0.25961
G1 X110.671 Y97.367 E0.02365
G1 X110.671 Y105.647 E0.25961
G1 X111.425 Y105.647 E0.02365
G1 X111.425 Y97.367 E0.25961
G1 X112.179 Y97.367 E0.02365
G1 X112.179 Y105.647 E0.25961
G1 X112.710 Y105.647 E0.01665
G1 X112.710 Y107.976 E0.07301
G1 X112.933 Y107.976 E0.00700
G1 X112.933 Y97.367 E0.33262
M73 P1 R50
M73 Q1 S50
G1 X113.688 Y97.367 E0.02365
G1 X113.688 Y107.976 E0.33262
G1 X114.442 Y107.976 E0.02365
G1 X114.442 Y97.367 E0.33262
G1 X115.196 Y97.367 E0.02365
G1 X115.196 Y108.145 E0.33794
;WIPE_START
G1 F8640.000
G1 X115.196 Y104.854 E-0.76000
;WIPE_END
G1 E-0.04000 F2100.000
G1 Z0.600 F10800.000
G1 X118.967 Y111.802
G1 Z0.200
G1 E0.80000 F2100.000
G1 F1200.000
G1 X118.967 Y111.538 E0.00828
G1 X118.732 Y111.233 E0.01208
G1 X118.213 Y110.389 E0.03106
G1 X118.213 Y111.802 E0.04431
G1 X118.129 Y111.838 F10800.000
;TYPE:Support material interface
;WIDTH:0.35
G1 F1200.000
G1 X118.129 Y114.314 E0.06323
G1 X118.658 Y114.314 E0.01350
G1 X118.658 Y111.986 E0.05946
G1 X119.186 Y111.986 E0.01350
G1 X119.186 Y114.314 E0.05946
G1 X119.715 Y114.314 E0.01350
G1 X119.715 Y112.385 E0.04925
G1 X119.878 Y112.554 E0.00601
G1 X119.963 Y112.868 E0.00828
G1 X120.096 Y113.096 E0.00674
G1 X120.243 Y113.166 E0.00418
G1 X120.243 Y114.314 E0.02932
G1 X120.772 Y114.314 E0.01350
G1 X120.772 Y113.331 E0.02512
G1 X121.300 Y113.702 E0.01649
G1 X121.300 Y114.314 E0.01564
G1 X121.829 Y114.314 E0.01350
G1 X121.829 Y114.019 E0.00753
G1 X122.357 Y114.308 E0.01538
G1 X122.357 Y114.462 E0.00394
;WIPE_START
G1 F8640.000
G1 X122.357 Y114.308 E-0.03563
G1 X121.829 Y114.019 E-0.13904
G1 X121.829 Y114.314 E-0.06812
G1 X121.300 Y114.314 E-0.12204
G1 X121.300 Y113.702 E-0.14142
G1 X120.772 Y113.331 E-0.14913
G1 X120.772 Y113.784 E-0.10462
;WIPE_END
G1 E-0.04000 F2100.000
G1 Z0.600 F10800.000
G1 X129.757 Y114.500
G1 Z0.200
G1 E0.80000 F2100.000
G1 F1200.000
G1 X129.757 Y116.643 E0.05471
G1 X130.285 Y116.643 E0.01350
G1 X130.285 Y114.438 E0.05630
G1 X130.791 Y114.197 E0.01430
G1 X130.814 Y114.199 E0.00059
G1 X130.814 Y116.643 E0.06240
G1 X131.342 Y116.643 E0.01350
G1 X131.342 Y114.164 E0.06328
G1 X131.376 Y114.155 E0.00089
G1 X131.551 Y113.970 E0.00650
G1 X131.595 Y113.728 E0.00627
G1 X131.871 Y113.537 E0.00859
G1 X131.871 Y116.791 E0.08308
;WIPE_START
G1 F8640.000
G1 X131.871 Y113.537 E-0.75130
G1 X131.840 Y113.558 E-0.00870
;WIPE_END
G1 E-0.04000 F2100.000
G1 Z0.600 F10800.000
G1 X136.312 Y108.145
G1 Z0.200
G1 E0.80000 F2100.000
;TYPE:Support material
;WIDTH:0.42
G1 F1200.000
G1 X136.312 Y105.183 E0.09288
G1 X136.628 Y105.148 F10800.000
;TYPE:Support material interface
;WIDTH:0.35
G1 F1200.000
G1 X136.628 Y102.671 E0.06323
G1 X136.099 Y102.671 E0.01350
G1 X136.099 Y105.000 E0.05946
G1 X135.815 Y105.000 E0.00727
G1 X135.726 Y104.327 E0.01734
G1 X135.843 Y104.022 E0.00834
G1 X135.876 Y103.716 E0.00785
G1 X135.663 Y103.437 E0.00898
G1 X135.571 Y103.420 E0.00238
G1 X135.571 Y102.524 E0.02289
;WIPE_START
G1 F8640.000
G1 X135.571 Y103.420 E-0.20699
G1 X135.663 Y103.437 E-0.02155
G1 X135.876 Y103.716 E-0.08116
G1 X135.843 Y104.022 E-0.07097
G1 X135.726 Y104.327 E-0.07544
G1 X135.815 Y105.000 E-0.15685
G1 X136.099 Y105.000 E-0.06574
G1 X136.099 Y104.648 E-0.08131
;WIPE_END
G1 E-0.04000 F2100.000
G1 Z0.600 F10800.000
G1 X129.228 Y97.057
G1 Z0.200
G1 E0.80000 F2100.000
G1 F1200.000
G1 X129.228 Y95.686 E0.03501
G1 X128.700 Y95.686 E0.01350
G1 X128.700 Y96.746 E0.02707
G1 X128.171 Y96.635 E0.01379
G1 X128.171 Y95.686 E0.02424
G1 X127.643 Y95.686 E0.01350
G1 X127.643 Y96.398 E0.01819
G1 X127.330 Y96.251 E0.00884
G1 X127.114 Y96.327 E0.00584
G1 X127.114 Y95.686 E0.01637
G1 X126.586 Y95.686 E0.01350
G1 X126.586 Y96.481 E0.02031
G1 X126.057 Y96.485 E0.01350
G1 X126.057 Y95.686 E0.02041
G1 X125.529 Y95.686 E0.01350
M73 P1 R49
G1 X125.529 Y96.531 E0.02159
G1 X125.000 Y96.592 E0.01358
G1 X125.000 Y95.538 E0.02690
G1 X121.229 Y98.261 F10800.000
;TYPE:Support material
;WIDTH:0.42
G1 F1200.000
G1 X121.229 Y97.367 E0.02803
G1 X120.475 Y97.367 E0.02365
G1 X120.475 Y98.616 E0.03917
G1 X119.987 Y99.035 E0.02015
G1 X119.721 Y99.314 E0.01210
G1 X119.721 Y97.367 E0.06104
G1 X118.967 Y97.367 E0.02365
G1 X118.967 Y100.193 E0.08859
G1 X118.739 Y100.487 E0.01166
G1 X118.367 Y101.082 E0.02200
G1 X118.367 Y99.990 E0.03422
G1 X118.213 Y99.990 E0.00485
G1 X118.213 Y97.367 E0.08224
G1 X117.458 Y97.367 E0.02365
G1 X117.458 Y99.990 E0.08224
G1 X116.704 Y99.990 E0.02365
G1 X116.704 Y97.367 E0.08224
G1 X115.950 Y97.367 E0.02365
G1 X115.950 Y99.990 E0.08224
G1 X115.333 Y99.990 E0.01935
G1 X115.333 Y103.024 E0.09513
G1 X115.950 Y103.024 E0.01935
G1 X115.950 Y107.976 E0.15525
G1 X116.704 Y107.976 E0.02365
G1 X116.704 Y103.024 E0.15525
G1 X117.458 Y103.024 E0.02365
G1 X117.458 Y103.817 E0.02486
;WIPE_START
G1 F8640.000
G1 X117.458 Y103.024 E-0.18307
G1 X116.704 Y103.024 E-0.17414
G1 X116.704 Y104.769 E-0.40279
;WIPE_END
G1 E-0.04000 F2100.000
G1 Z0.600 F10800.000
G1 X117.600 Y102.819
G1 Z0.200
G1 E0.80000 F2100.000
;TYPE:Support material interface
;WIDTH:0.35
G1 F1200.000
G1 X117.600 Y100.343 E0.06323
G1 X117.072 Y100.343 E0.01350
G1 X117.072 Y102.671 E0.05946
G1 X116.543 Y102.671 E0.01350
G1 X116.543 Y100.343 E0.05946
G1 X116.015 Y100.343 E0.01350
G1 X116.015 Y102.819 E0.06323
;WIPE_START
G1 F8640.000
G1 X116.015 Y100.343 E-0.57182
G1 X116.543 Y100.343 E-0.12204
G1 X116.543 Y100.629 E-0.06614
;WIPE_END
G1 E-0.04000 F2100.000
G1 Z0.600 F10800.000
G1 X117.458 Y73.912
G1 Z0.200
G1 E0.80000 F2100.000
;TYPE:Support material
;WIDTH:0.42
G1 F1200.000
G1 X117.458 Y87.019 E0.41095
G1 X118.213 Y87.019 E0.02365
G1 X118.213 Y74.082 E0.40563
G1 X118.967 Y74.082 E0.02365
G1 X118.967 Y87.019 E0.40563
G1 X119.696 Y87.019 E0.02286
G1 X119.696 Y94.004 E0.21903
G1 X119.721 Y94.004 E0.00079
G1 X119.721 Y74.082 E0.62466
G1 X120.475 Y74.082 E0.02365
G1 X120.475 Y94.004 E0.62466
G1 X121.229 Y94.004 E0.02365
G1 X121.229 Y74.082 E0.62466
G1 X121.983 Y74.082 E0.02365
G1 X121.983 Y97.600 E0.73738
G1 X122.322 Y97.412 E0.01215
G1 X122.738 Y97.234 E0.01417
G1 X122.738 Y74.082 E0.72591
G1 X123.492 Y74.082 E0.02365
G1 X123.492 Y96.944 E0.71683
G1 X124.246 Y96.722 E0.02465
G1 X124.246 Y74.082 E0.70988
G1 X125.000 Y74.082 E0.02365
G1 X125.000 Y95.333 E0.66631
G1 X125.754 Y95.333 E0.02365
G1 X125.754 Y76.410 E0.59330
G1 X126.508 Y76.410 E0.02365
G1 X126.508 Y95.333 E0.59330
G1 X127.262 Y95.333 E0.02365
G1 X127.262 Y76.410 E0.59330
G1 X127.976 Y76.410 E0.02236
G1 X127.976 Y83.396 E0.21903
M73 Q1 S49
G1 X128.017 Y83.396 E0.00129
G1 X128.017 Y95.333 E0.37428
G1 X128.771 Y95.333 E0.02365
G1 X128.771 Y83.396 E0.37428
G1 X129.525 Y83.396 E0.02365
G1 X129.525 Y95.333 E0.37428
G1 X130.010 Y95.333 E0.01520
G1 X130.010 Y97.155 E0.05713
G1 X130.279 Y97.271 E0.00919
G1 X130.279 Y83.396 E0.43503
G1 X130.304 Y83.396 E0.00079
G1 X130.304 Y90.382 E0.21903
G1 X131.033 Y90.382 E0.02286
G1 X131.033 Y97.647 E0.22781
G1 X131.451 Y97.880 E0.01500
G1 X131.787 Y98.114 E0.01284
G1 X131.787 Y90.382 E0.24244
M73 P2 R49
M73 Q2 S49
G1 X132.542 Y90.382 E0.02365
G1 X132.542 Y98.690 E0.26050
G1 X132.952 Y99.043 E0.01698
G1 X133.296 Y99.404 E0.01562
G1 X133.296 Y97.367 E0.06386
G1 X134.050 Y97.367 E0.02365
G1 X134.050 Y100.303 E0.09205
G1 X134.203 Y100.504 E0.00793
G1 X134.679 Y101.268 E0.02824
G1 X134.804 Y101.515 E0.00865
G1 X134.804 Y97.367 E0.13004
G1 X135.558 Y97.367 E0.02365
G1 X135.558 Y102.319 E0.15525
G1 X136.312 Y102.319 E0.02365
G1 X136.312 Y95.039 E0.22826
G1 X137.067 Y95.039 E0.02365
G1 X137.067 Y107.976 E0.40563
G1 X137.821 Y107.976 E0.02365
G1 X137.821 Y95.039 E0.40563
G1 X138.324 Y95.039 E0.01578
G1 X138.324 Y92.710 E0.07301
G1 X138.575 Y92.710 E0.00786
G1 X138.575 Y107.976 E0.47864
G1 X139.329 Y107.976 E0.02365
G1 X139.329 Y92.710 E0.47864
G1 X140.083 Y92.710 E0.02365
G1 X140.083 Y107.976 E0.47864
G1 X140.837 Y107.976 E0.02365
G1 X140.837 Y92.710 E0.47864
G1 X141.591 Y92.710 E0.02365
G1 X141.591 Y107.976 E0.47864
G1 X141.947 Y107.976 E0.01114
G1 X141.947 Y105.647 E0.07301
G1 X142.346 Y105.647 E0.01250
G1 X142.346 Y92.710 E0.40563
G1 X142.981 Y92.710 E0.01993
G1 X142.981 Y90.382 E0.07301
G1 X143.100 Y90.382 E0.00372
G1 X143.100 Y105.647 E0.47864
G1 X143.854 Y105.647 E0.02365
G1 X143.854 Y90.382 E0.47864
G1 X144.608 Y90.382 E0.02365
G1 X144.608 Y103.319 E0.40563
G1 X145.362 Y103.319 E0.02365
G1 X145.362 Y88.053 E0.47864
G1 X146.116 Y88.053 E0.02365
G1 X146.116 Y103.319 E0.47864
G1 X146.871 Y103.319 E0.02365
G1 X146.871 Y88.053 E0.47864
G1 X147.625 Y88.053 E0.02365
G1 X147.625 Y103.319 E0.47864
G1 X148.379 Y103.319 E0.02365
G1 X148.379 Y88.053 E0.47864
G1 X149.133 Y88.053 E0.02365
G1 X149.133 Y100.990 E0.40563
G1 X149.887 Y100.990 E0.02365
G1 X149.887 Y88.053 E0.40563
G1 X150.641 Y88.053 E0.02365
G1 X150.641 Y100.990 E0.40563
G1 X151.261 Y100.990 E0.01943
G1 X151.261 Y98.661 E0.07301
G1 X151.396 Y98.661 E0.00422
G1 X151.396 Y88.053 E0.33262
G1 X152.150 Y88.053 E0.02365
G1 X152.150 Y98.661 E0.33262
G1 X152.904 Y98.661 E0.02365
G1 X152.904 Y88.053 E0.33262
G1 X153.658 Y88.053 E0.02365
G1 X153.658 Y96.333 E0.25961
G1 X154.412 Y96.333 E0.02365
G1 X154.412 Y88.053 E0.25961
G1 X155.166 Y88.053 E0.02365
G1 X155.166 Y96.503 E0.26493
;WIPE_START
G1 F8640.000
G1 X155.166 Y93.211 E-0.76000
;WIPE_END
G1 E-0.04000 F2100.000
G1 Z0.600 F10800.000
G1 X150.641 Y129.102
G1 Z0.200
G1 E0.80000 F2100.000
G1 F1200.000
G1 X150.641 Y120.653 E0.26493
G1 X149.887 Y120.653 E0.02365
G1 X149.887 Y128.932 E0.25961
G1 X149.133 Y128.932 E0.02365
G1 X149.133 Y120.653 E0.25961
G1 X148.932 Y120.653 E0.00629
G1 X148.932 Y118.324 E0.07301
G1 X148.379 Y118.324 E0.01736
G1 X148.379 Y128.932 E0.33262
G1 X147.625 Y128.932 E0.02365
G1 X147.625 Y118.324 E0.33262
G1 X146.871 Y118.324 E0.02365
G1 X146.871 Y128.932 E0.33262
G1 X146.116 Y128.932 E0.02365
G1 X146.116 Y115.996 E0.40563
G1 X145.362 Y115.996 E0.02365
G1 X145.362 Y128.932 E0.40563
G1 X144.608 Y128.932 E0.02365
G1 X144.608 Y115.996 E0.40563
G1 X143.854 Y115.996 E0.02365
G1 X143.854 Y128.932 E0.40563
G1 X143.100 Y128.932 E0.02365
G1 X143.100 Y115.996 E0.40563
G1 X142.346 Y115.996 E0.02365
G1 X142.346 Y128.932 E0.40563
G1 X141.591 Y128.932 E0.02365
G1 X141.591 Y113.667 E0.47864
G1 X140.837 Y113.667 E0.02365
G1 X140.837 Y128.932 E0.47864
G1 X140.653 Y128.932 E0.00579
G1 X140.653 Y126.604 E0.07301
M73 P3 R49
M73 Q3 S49
G1 X140.083 Y126.604 E0.01786
G1 X140.083 Y113.667 E0.40563
G1 X139.618 Y113.667 E0.01457
G1 X139.618 Y111.338 E0.07301
G1 X139.329 Y111.338 E0.00907
G1 X139.329 Y126.604 E0.47864
G1 X138.575 Y126.604 E0.02365
G1 X138.575 Y111.338 E0.47864
G1 X137.821 Y111.338 E0.02365
G1 X137.821 Y126.604 E0.47864
G1 X137.067 Y126.604 E0.02365
G1 X137.067 Y109.010 E0.55165
G1 X136.312 Y109.010 E0.02365
G1 X136.312 Y126.604 E0.55165
G1 X135.996 Y126.604 E0.00993
G1 X135.996 Y124.275 E0.07301
G1 X135.558 Y124.275 E0.01371
G1 X135.558 Y109.010 E0.47864
G1 X135.327 Y109.010 E0.00725
G1 X135.114 Y109.583 E0.01916
G1 X134.804 Y110.215 E0.02209
G1 X134.804 Y124.275 E0.44085
G1 X134.050 Y124.275 E0.02365
M73 P3 R48
G1 X134.050 Y111.427 E0.40285
G1 X133.608 Y111.997 E0.02261
G1 X133.296 Y112.327 E0.01424
G1 X133.296 Y121.947 E0.30164
G1 X132.542 Y121.947 E0.02365
G1 X132.542 Y113.041 E0.27924
G1 X132.338 Y113.215 E0.00840
G1 X132.338 Y116.996 E0.11852
G1 X131.787 Y116.996 E0.01728
G1 X131.787 Y121.947 E0.15525
G1 X131.338 Y121.947 E0.01408
G1 X131.338 Y119.618 E0.07301
G1 X131.033 Y119.618 E0.00957
G1 X131.033 Y116.996 E0.08224
G1 X130.279 Y116.996 E0.02365
G1 X130.279 Y119.618 E0.08224
G1 X129.525 Y119.618 E0.02365
G1 X129.525 Y116.996 E0.08224
G1 X129.304 Y116.996 E0.00692
G1 X129.304 Y114.828 E0.06795
G1 X128.771 Y114.990 E0.01748
G1 X128.771 Y119.618 E0.14512
G1 X128.017 Y119.618 E0.02365
G1 X128.017 Y115.145 E0.14026
G1 X127.262 Y115.235 E0.02381
G1 X127.262 Y119.618 E0.13745
G1 X126.508 Y119.618 E0.02365
G1 X126.508 Y115.267 E0.13643
G1 X125.997 Y115.267 E0.01602
G1 X125.754 Y115.243 E0.00766
G1 X125.754 Y119.618 E0.13717
G1 X125.000 Y119.618 E0.02365
G1 X125.000 Y115.163 E0.13971
